X:4564
T:Napoleon Crossing the Rhine
O:england
R:Hornpipe
M:4/4
N:As played
S:Dianna Boullier, Bangor (fiddle)
K:Em
E3E {G}EDB,D | {A}GFGB A2GA | (3Bcd gf edBA | GE~E2 FDD2B,2 | E2GE {G}EDB,D |
GFGB A2GA | (3Bcd gf edBA |1 GE{G}ED E2B,D :|2 GE{G}ED E2Bd || eged B2{d}BA |
G3B d2Bd | eged AB{d}BA | GE~E2 FDB,D | E2GE {G}EDB,D |
GFGB A2GA | (3Bcd gf edBA |1 GE{G}ED E2Bd :|2 GE{G}ED E4 ||
